X:15332
T:Sherlock's
M:C|
L:1/8
K:G Major
(3DEF|GA (3GFE DG,B,D|GFGB d2gf|edcB (3ABA GA|BAGF E2(3DEF|!
GA (3GFE DG,B,D|GFGB d2gf|edcB (3ABA GA|B2G2 G2:|!
Bc|d^cde dBGF|GBd^c d2gf|e2ef edBd|(3cBA BG A2 (3DEF|!
GA (3GFE DG,B,D|GFGB d2gf|edcB (3ABA GA|B2G2 G2:|!
